assets/img/icons/clock-rush.svg

<svg width="32" height="32" viewBox="0 0 32 32" fill="none" xmlns="http://www.w3.org/2000/svg">
<path d="M14.6667 0C6.56667 0 0 6.56667 0 14.6667C0 21.9293 5.28533 27.944 12.216 29.112C12.3067 28.5187 12.5067 27.9347 12.824 27.3907L19.2347 16.4013C20.112 14.8987 21.6747 14 23.4147 14C25.1547 14 26.7173 14.8973 27.5947 16.4013L28.8133 18.4907C29.1427 17.2693 29.3347 15.992 29.3347 14.668C29.3333 6.56667 22.7667 0 14.6667 0ZM16 14.6667C16 15.4027 15.404 16 14.6667 16H9.33333C8.596 16 8 15.4027 8 14.6667C8 13.9307 8.596 13.3333 9.33333 13.3333H13.3333V8C13.3333 7.264 13.9293 6.66667 14.6667 6.66667C15.404 6.66667 16 7.264 16 8V14.6667ZM21.5387 17.744L15.128 28.7333C14.284 30.1813 15.328 32 17.004 32H29.8253C31.5013 32 32.5467 30.1813 31.7013 28.7333L25.2907 17.744C24.452 16.3067 22.376 16.3067 21.5387 17.744ZM23.4147 30.6667C22.6787 30.6667 22.0813 30.0693 22.0813 29.3333C22.0813 28.5973 22.6787 28 23.4147 28C24.1507 28 24.748 28.5973 24.748 29.3333C24.748 30.0693 24.1507 30.6667 23.4147 30.6667ZM22.0813 25.3333V22.664C22.0813 21.928 22.6787 21.3307 23.4147 21.3307C24.1507 21.3307 24.748 21.928 24.748 22.664V25.3333C24.748 26.0693 24.1507 26.6667 23.4147 26.6667C22.6787 26.6667 22.0813 26.0693 22.0813 25.3333Z" fill="#BF1F1F"/>
</svg>

<svg width="32" height="32" fill="none" xmlns="http://www.w3.org/2000/svg"><path d="M14.667 0C6.567 0 0 6.567 0 14.667c0 7.262 5.285 13.277 12.216 14.445a4.87 4.87 0 0 1 .608-1.721l6.41-10.99A4.796 4.796 0 0 1 23.415 14c1.74 0 3.303.897 4.18 2.401l1.22 2.09c.329-1.222.52-2.499.52-3.823C29.335 6.567 22.768 0 14.668 0ZM16 14.667c0 .736-.596 1.333-1.333 1.333H9.333a1.333 1.333 0 1 1 0-2.667h4V8A1.333 1.333 0 1 1 16 8v6.667Zm5.539 3.077-6.411 10.99c-.844 1.447.2 3.266 1.876 3.266h12.821c1.676 0 2.722-1.819 1.876-3.267l-6.41-10.989c-.839-1.437-2.915-1.437-3.752 0Zm1.876 12.923a1.334 1.334 0 1 1 0-2.668 1.334 1.334 0 0 1 0 2.668Zm-1.334-5.334v-2.669a1.334 1.334 0 0 1 2.667 0v2.67a1.334 1.334 0 0 1-2.667 0Z" fill="#BF1F1F"/></svg>
